X: 1
T: Arrivederci, Roma   [G]
C: Music: Renato Rascel
N: From the MGM movie "The Seven Hills of Rome"
M: C|
L: 1/8
K: G
P: Chorus:
D2 | "G"B6 d2 | "Cm"c6 "D7"B2 | "G"A4 G4- | G6 D2 | "G"B6 F2 |\
"B7"A6 "B7+"G2 | "C"E4- "E7"E4- | "Am"E4 "n.c."FFFF | "D7"F3A "Am7"F2E2 |
"D7"E2D2 FFFF | F3A "Am7"F2E2 | "D7"E2D2 FFFF | F3A "Am7"F2E2 |\
"D7"E2D2 "Cm"c2"D7"B2 |1 "G"d8- | d4 z2 :|2 "G"G8- | G6 |]
